X:1
T:Per Aspera Ad Astra
T:Irrumabo Mauris
T:000844-0052
T:Alice Hsu
T:(c) 2014
T:(c) 2014
T:(c) 2014
T:(c) 2014
T:(c) 2014
T:(c) 2014
T:(c) 2014
T:(c) 2014
T:(c) 2014
T:(c) 2014
T:(c) 2014
T:(c) 2014
T:(c) 2014
T:(c) 2014
T:(c) 2014
T:(c) 2014
T:(c) 2014
T:(c) 2014
T:(c) 2014
T:(c) 2014
T:(c) 2014
T:(c) 2014
T:(c) 2014
T:(c) 2014
Z:(c) 2014
%%score 1 2 3 4
L:1/8
M:4/4
K:F
V:1 treble nm="Violin" snm="Vln."
V:2 treble nm="Violin" snm="Vln."
V:3 alto nm="Viola" snm="Vla."
V:4 bass nm="Violoncello" snm="Vlc."
V:1
"^pizz."!p! g z z2 g z z2 | g z z2 g z z2 |[M:6/8] gdB dgd | Bdg dBd | gdB dgd | Bdg dBd |"^1" g6 | %7
 g6 | g6 | g6 |!<(! gdg dgd!<)! | gdg d^fg | ^f2 d2 A^A | _G z z4 | %14
"^arco"!f! vg'4"^pizz." !plus!F2 |[M:4/4]"^arco"!mp!"^2" vgB GA/B/ A2 A/B/c/ud/- | %16
 d3/2 B2 A2 B2 G/- | G7/2 vD4- D/- | D3/2 z/ z2 z4 |!mf! vg/ z/ vc'/c'/ (b/a/)g/b/ d/vdu^d3/2ud | %20
!>(! f_e d4 z2!>)! |[M:6/8]!p!"^3" Tvd6- |{Bc} d2 z4 | bab abc' | d'4 z/ z/ z/ d'/ | %25
 g'2 ug'2 u^f'2 |!>(! (vd'/c'/)b/a/g/d/ (B/A/) G2-!>)! | G4 z2 | z6 | z6 |[M:4/4]"^4" z8 | z8 | %32
!p! z2"^pizz." B2 z2 G2 | z2 B2 z2 G2 | G2 F2 E2 D2 |"^arco"!mp! u[Ad]4 [DG]4 | %36
 a4!>(! (vg/f/)e/d/ c/B/A/!p!G/!>)! |"^5"!<(! !trill(!Tvug'8-!<)! | ug'4 z4 |!f! d8- | ud8 | %41
[M:6/8]!mf!"^6" g4 B2- | B2 d4 | [DG]6 | d4 G2 | B2 d2 D2 |!p! D2 _E3 E | F3 _E D2- | D2 (C>C) D2 | %49
 C3/2B,B,CB,A,/- | A,/A,B,A, G,2- G,/- | G,7/2 [G,D]2 [G,D]/ |!>(! [DGd]6!>)! |"^7" z6 | z6 | %55
 GA z z Bc | cBA ^FAG- | G3 z z2 |!pp! !///!G6 | !///!G6 | !///!G6 | !///!G6 | z6 | B4 G2- | %64
 G2!mf! d4 |"^8" _e4 c2- | c2 d4 |!mp! _d4 c2- | c2 _e4 | G4 B2- | B2 c4 | d4 c2- | c2 B4 | %73
 B4 A2- | A2 G4- | G4 z2 |!mf! [DG]6 |"^9" z6 |!mp! D2 G4 | ABA G d2 | d2 _e4 | _e2 d4 | d2 g3 g | %83
 f_e (3d2 c2 B2 | B2 A3 A | BA G4 |"^10" [gg']6 | z6 | z6 | z6 | z6 | z6 |!ff!"^11" u[FB]6 | %93
 [Bd]6 | [dg]6 |!f! ab a3 ug/g/- | g7/2 (3f_efe/- | e/ d4 d3/2- | d/ c3 cdc/- | c/BAGD_EE/- | %100
 E/F_E D7/2- | D/ z/ z z4 |"^pizz."!mp! gdB dgd | Bdg dgd | %104
"^arco" (vg/d/)B/G/G/B/ (d/_g/)b/=g/f/_e/ | (d/c/)B/A/(3(G/B/)d/ (3(d/B/)G/(3(G/B/)d/(3(d/B/)G/ | %106
"^trem"!pp! (!///!G6 | !///!G6) |[M:4/4]"^12" z2"^pizz."!mf! g2 z2 g2 | z2 g2 z2 g2 | %110
 D2 E2 ^F2 G2 |!<(! ABcd _e^fga!<)! | bagd _edcB |!f! AG^FA G4 | z8 |!fff! !>![dg]8 |] %116
V:2
 z8 | z8 |[M:6/8]"^trem."!pp! !///!G6 | !///!G6 | !///!G6 | !///!_G6 |"^pizz."!pp! gdB dgd | %7
 Bdg dBd | gdB dgd | BcA G ^F2 |!<(! A6!<)! | A6 | AGD ^FGA | Bc !plus!d3 !plus!d | %14
"^arco"!f! !breath!v[Bg]6 |[M:4/4]!p! vGBD3/2BG d2 d/- | d/ z/ z vd^d =dBcd | ^cBAG D_EDC | %18
 B,A,G, z z4 | (G/A/)G/A/ (G/A/)G/A/ (G/A/)G/A/ (F/E/)D/C/ | %20
 (G,/d/)_e/d/ (G,/d/)e/d/ (C/A/)B/A/ d/d/e/d/ |[M:6/8]"^trem"!ppp! !///!vd6- | !///!d2 z4 | %23
"^pizz." A z E z d z | B z G z B, z | d z D z G z | %26
!>(! !plus!d'/!plus!c'/!plus!b/!plus!a/g/d/ G/E/ G2-!>)! | G2!pp! d/!<(!_e/ d/e/d/e/d/e/!<)! | d6 | %29
 d6 |[M:4/4]!p! d z z2 d z z2 | d z z2 d z z2 | d2 z2 d2 z2 | d2 z2 d2 z2 | BDAD BDAD | %35
"^arco"!mp! [G,D]4 [Gd]4 | vuA8 | %37
!ppp! (vG,/4D/4)B/4d/4(d/4B/4)D/4G,/4 (G,/4D/4)B/4d/4(d/4B/4)D/4G,/4 (G,/4D/4)B/4d/4(d/4B/4)D/4G,/4 (G,/4D/4)B/4d/4(d/4B/4)D/4G,/4 | %38
 (3(D/G/)B/(3(B/G/)D/ (3(D/G/)B/(3(B/G/)D/ (3(D/G/)B/(3(B/G/)D/ (3(D/G/)B/(3(B/G/)D/ |!f! B8- | %40
 uB8 |[M:6/8]!mf! d4 GB | (D>B)A B d2- | d2!mp! (d/c/) d/c/d/c/d/c/ | [Dd]6 | G2 B2 G2 | %46
!p! A2 c3 B | d3 G3 | A2 A2 _G2 | A3 G3 | (3[Ad]2 [Gc]2 [DA]2 G2- |!>(! (v[Gg]6!>)! | [Gg]6) | z6 | %54
 z6 | z6 | z6 |"^pizz." gg z GG z | BB z dd z | _eeA Bcd | d/ G4 z/ z | z6 | z6 | z6 | z6 | z6 | %66
 z6 | B4 G2- | G6 | [Gd]6 | [Be]6 | [Gd]6 | [Ac]6 | [FB]6 | [Gd]6 | [Ad]6 |"^arco"!mf! [Gd]6 | z6 | %78
!mp! g4 d2- | d2 B4 | d4 g2- | g2 d4 | B4 d2- | d2 g4 | d4 B2- | B2 d4 |"^pizz." B z A z B z | %87
 G z A z F z | G z C z D z | D z G z AB | cd_e d3- | d z z4 |"^arco"!ff! [dg]6 | [GB]6 | [GB]6 | %95
!f! [GB]6 |"^pizz."!mp! G2 z4 | G2 z4 | G2 z4 | G2 z4 | G2 z4 | G2 z4 | G2 z4 | G2 z4 | G2 z4 | %105
 G2 z4 | GBG BGB | GBG BGB |[M:4/4]!mf! G2 z2 G2 z2 | G2 z2 G2 z2 | D2 E2 ^F2 G2 | %111
!<(! ABcd _e^fga!<)! | b z c' z d'4- |!f! d'4 d'4- | d'4 z4 |!fff!{d'} g'8 |] %116
V:3
 z8 | z8 |[M:6/8] z6 | z6 | z6 | z6 |!mp! vD,2 G,4 | A,B,A, G, D2- | D2 D2 _E2- | E2 _E2 (D2 | %10
 D) z!<(! vD2 G2!<)! | C_ED ^A,=A,B, | G2 D2 D/B,/A,/G,/ | z6 |!f! (v[B,D]6 | %15
[M:4/4]!pp!!<(! TuD8)!<)! | vD,2 G,2 B,!>(!DB,G,!>)! | %17
 (vD,/A,/)D/A/ (A/E/)B,/D,/ (D,/A,/)D/A/ (A/E/)B,/D,/ |!<(! B,A,G,D, D_EDB!<)! | A z d^d =d z g^a | %20
!<(! (ga/) z b/(D c')(Dd')D!<)! |[M:6/8]"^trem"!ppp! !///!vD6- | !///!D2 z4 | %23
 z/"^pizz." G/B/A/ z B z/ G/B/A/ | G/ z/ ^F/ z/ =F/ z/ E/ z/ ^D/ z/ =D/ z/ | %25
 ^C/ z/ =B,/ z/ _B,/ z/ ^A,/ z/ =A,/ z/ G,/ z/ |{G,} G6 | z6 | z6 | z6 |[M:4/4] z8 | z8 | %32
!p! z/ G,/B,/D/ z/ z/ C,/F,/ A,/ z/ G,/B,/ D/ z/ C,/F,/ | %33
 A,/ z/ G,/B,/ D/ z/ A,/D/ ^F/ z/ G/ z/ G,/G,/ z/ z/ |"^arco" D,2 G,2 A,2 B,2 | A,2 G,2 D2 D2 | %36
 _E2 E2 D2 D2 | G2 A2 B2 c2 | d2 _e2 d2 B2 |!f! A2 G6- | G8 |[M:6/8]!mf! B,4 D2- | D2 A, G,B,C | %43
 [DA]6 | [DG]6 | [DF]6 |"^pizz."!pp! GDB, DGD | B,DG DB,D | GDB, DGD | ^FAG DB,G, | D,D,D, D,D,D, | %51
 D,D,D, D,D,D, | D, z G, z z2 |!mp! A,B,A, G,D z | D_E z z2 D | z6 | z6 |!pp! D,D,D, D,D,D, | %58
 D,D,D, D,D,D, | D,D,D, D,D,D, | G,B,D B,G,B, | DB,G, B,DB, | G,B,D B,G,B, | G,D,G D G,2- | %64
 G,2 z4 | z6 | z6 | G,4 _E2- | E6 | _EB,E DCB, | A,CB, A, G,2 |"^arco" G6 | C4 B,2- | B,2 B,4 | %74
 A,4 G,2- | G,2 z4 |!mf! [G,D]6 |"^pizz."!p! G,B,D B,G,B, | DB,G, B,DB, | G,B,D B,G,B, | %80
 DB,G, B,DB, | G,^F,D, F,A,G, | [G,D]6 | z6 | z6 | z6 | z/!mp! B,/A,/G,/ z/ D/ C/B,/ z/ G/F/D/ | %87
 z/ B/A/G/ z/ G,/ B,/D/ z/ _E/D/C/ | z/ G/B/A/ z/ G,/ B,/D/ z/ D/C/B,/ | %89
 A,/G,/F,/_E,/D,/ z/ A,/G,/ z2 | z6 | z6 |"^arco"!ff! [B,D]6 | F,6 | [DG]6 |!f! [G,D]6 | %96
!mp! z"^pizz." GG, z2 B, | z GG, z2 B, | z GG, z2 B, | z GG, z2 B, | z GG, z z B, | z GG, z2 B, | %102
 z GG, z2 C | z GG, z2 D | z GG, z2 E | z GG, z2 F | z6 | z6 |[M:4/4] z8 | z8 | %110
 z!mf! G, z A, z G, z A, |!<(! A,B,CD _E^FGA!<)! | dD/B,/ z G/B,/ z z G,/^A,/=A,/G,/ | %113
!f! z D/G/ ^F/D/ z z G/B/ A/G/ z | d/ z/ z z2 z4 |!fff!{D,} !>![G,B,D]8 |] %116
V:4
 z8 | z8 |[M:6/8]!pp! G,,6 | G,,6 | G,,6 | D,6 |!mp! F,D, G,,4 | D,D,F, B,,C,D, | G,B,G, D_E,G, | %9
 G,_G,=G, ^F,=F,^D, |!<(! D,C,B,, A,,G,,B,,-!<)! | B,,4 vC,D, | %12
 A,,B,,/A,,/^F,,/ z/ G,/B,/_E/D/D/C/ | C,/B,,/A,,/G,,/"^pizz." G,2 G,,2 | %14
"^arco"!f! !breath!v[B,,D,G,]6 | %15
[M:4/4]!p! (vG,,/B,,/)G,,/B,,/ (G,,/B,,/)G,,/B,,/ (G,,/B,,/)G,,/B,,/ (G,,/B,,/)G,,/B,,/ | %16
 (G,,/B,,/)G,,/B,,/ (G,,/B,,/)G,,/B,,/ (G,,/B,,/)G,,/B,,/ (G,,/B,,/)G,,/B,,/ | %17
!ppp!!pp! (vG,,/B,,/)G,,/B,,/ (G,,/B,,/)G,,/B,,/ (G,,/B,,/)G,,/B,,/ (G,,/B,,/)G,,/B,,/ | %18
 (G,,/B,,/)G,,/B,,/ (G,,/B,,/)G,,/B,,/ (G,,/B,,/)G,,/B,,/ (G,,/B,,/)G,,/B,,/ | %19
"^pizz." D,D, z2 G,,G,, z2 | D,D, z2 G,,G,, z2 |[M:6/8]!p! G,,B,,D, B,,G,,B,, | D,G,B, G,D,B,, | %23
 G,,B,,D, B,,G,,B,, | D,G,B, G,D,B,, | G,,B,,D, B,,G,,B,, | D,G,B, G,D,B,, | G,,B,,D, B,,G,,B,, | %28
 z6 | z6 |[M:4/4] z8 | z z z2 z4 |"^arco"!p! D,2 [G,B,]4 CD | CB, [DG]4 G2 | A2 z2 vA^A=AD, | %35
!mf! G,3 G, F,_E,D,^F, | A,2 G,6 | %37
"^pizz." G,/ z/ G,,/ z/ G,/ z/ G,,/ z/ G,/ z/ G,,/ z/ G,/ z/ G,,/ z/ | %38
"^arco"!<(! B,,/C,/D,/E,/ F,/G,/A,/B,/!>(! A,/G,/F,/E,/ D,/C,/B,,/A,,/!<)!!>)! |!f! G,,8- | uG,,8 | %41
[M:6/8]!mf! G,,4 G,2- | G,2 [G,,D,]4 | ([G,,G,]6 | (v[G,,G,]6) | u[G,,G,]6) | %46
"^pizz."!pp! G,B,G, B,G,B, | A,B,A, G,^F,G, | B,G,B, G,B,G, | B,G,^F, G,A,B, | A,G,B, A,G,A, | %51
 DDD, D,D,D, |!mp! z D, z _E, z =E, | F, z ^F, z G, z |!<(! ^G, z A, z B, z!<)! | C z _D z =D z | %56
"^arco"!>(! (vG/4F/4)E/4D/4C/4B,/4A,/4G,/4(3(uB,/8D/8)G/8 G7/2- G/4-!>)! | G/4 z/4 z/ z z4 | %58
"^pizz." G,,B,,D, G,,B,,D, | A,G,A, F,B,,D, | D,G,,D, G,,D,G,, | D,D,D, D,_E,D, | %62
 C,^A,,C,"^arco"!mp! D,3- | D,(_E,/D,/)E,/D,/ (C,/B,,/)C,/B,,/A,,/G,,/ | (B,,/A,,/) G,,4 z | z6 | %66
 z6 |!mf! D,4 C,2 | G,2 ^F,2 G,2 | C,2 D,2 C,2 | _E,2 D,2 C,2 | D,3 C,3 | C,D,C, B,,A,,C, | %73
 B,,A,,A,, C,B,,G,, | [D,G,]4 D,2- | D,2 _E,4 |!mf! [B,,D,]6 |"^pizz."!p! G,D,G, D,G,D, | %78
 G,D,G, D,G,D, | G,D,G, D,G,D, | G,D,G, D,G,D, | C,B,,^F, A,G,D, | B,,A,,G,, [D,G,]3 | %83
 G,,2 B,,2 D,2 | G,2 B,2 D2 | G2 B2 d2 | g6 | z6 | z6 | z6 | z6 | z6 |"^arco"!ff! ^F,6 | G,6 | %94
 [G,,B,,]6 |!f! [D,G,]6 |!mp! z z2"^pizz." B,,D, z | z z2 B,,D, z | z z2 B,,D, z | z z2 B,,D, z | %100
 z z2 B,,D, z | z z2 B,,D, z | z z2 B,,D, z | z z2 B,,G, z | z z2 B,,D z | z z z B,,G z | %106
"^arco" z6 | z6 |[M:4/4] z8 | z8 | %110
"^arco" (vG,/4D,/4)G,/4D,/4G,/4D,/4G,/4D,/4 G,/4D,/4G,/4D,/4G,/4D,/4G,/4D,/4 (G,/4D,/4)G,/4D,/4G,/4D,/4G,/4D,/4 G,/4D,/4G,/4D,/4G,/4D,/4G,/4D,/4 | %111
!<(! (G,/4D,/4)^F,/4G,/4(A,/4B,/4)C/4D/4 C/4B,/4A,/4G,/4 z"^pizz." _E,F,G,A,!<)! | %112
 B,,/G,,/B,,/G,,/ B,,/G,,/B,,/G,,/ B,,/G,,/B,,/G,,/ B,,/G,,/B,,/G,,/ | %113
!f! ^F,,/G,,/A,,/B,,/ z A,,/B,,/ C,/D,/ z C,/B,,/A,,/C,/ | B,,8 |!fff!{B,,} !>![D,G,]8 |] %116

